X:13697
T:Pybcorn: Boscastle Breakdown
M:4/4
L:1/8
R:Reel
Z:bil@blueskiesink.com
K:G
G2 B>c d2 B2|c>d e>f g4|G2 B>c d2 B2|A2 A2 A4|
G2 B>c d2 B2|c>d e>f g4|d>g f>e d>c B>A|G2 G2 G4:|
g>d B>d g>d B>d|g>e B>e g>e B>e|g>d B>d g>d B>d|A2 A2 A4|
g>d B>d g>d B>d|g>e B>e g>e B>e|d>g f>e d>c B>A|G2 G2 G4:|
